src/pos-icons/map-legend.svg

<svg height="24" viewBox="0 0 24 24" width="24" xmlns="http://www.w3.org/2000/svg"><path d="m9 3-5.64 1.9c-.21.07-.36.25-.36.48v15.12a.5.5 0 0 0 .5.5l.16-.03 5.34-2.07 6 2.1 5.64-1.9c.21-.07.36-.25.36-.48v-15.12a.5.5 0 0 0 -.5-.5l-.16.03-5.34 2.07zm-1 2.45v11.7l-3 1.16v-11.85zm2 .02 4 1.4v11.66l-4-1.4zm9 .23v11.84l-3 1.01v-11.69zm-11.54.6-1.89.67v2.15l1.89-.67zm0 2.75-1.89.67v2.15l1.89-.67zm0 2.75-1.89.67v2.15l1.89-.67zm0 2.75-1.89.67v2.15l1.89-.67z"/></svg>

<?xml version="1.0" encoding="UTF-8"?><!DOCTYPE svg PUBLIC "-//W3C//DTD SVG 1.1//EN" "http://www.w3.org/Graphics/SVG/1.1/DTD/svg11.dtd"><svg xmlns="http://www.w3.org/2000/svg" xmlns:xlink="http://www.w3.org/1999/xlink" version="1.1" id="mdi-map-legend" width="24" height="24" viewBox="0 0 24 24"><path d="M9,3L3.36,4.9C3.15,4.97 3,5.15 3,5.38V20.5A0.5,0.5 0 0,0 3.5,21L3.66,20.97L9,18.9L15,21L20.64,19.1C20.85,19.03 21,18.85 21,18.62V3.5A0.5,0.5 0 0,0 20.5,3L20.34,3.03L15,5.1L9,3M8,5.45V17.15L5,18.31V6.46L8,5.45M10,5.47L14,6.87V18.53L10,17.13V5.47M19,5.7V17.54L16,18.55V6.86L19,5.7M7.46,6.3L5.57,6.97V9.12L7.46,8.45V6.3M7.46,9.05L5.57,9.72V11.87L7.46,11.2V9.05M7.46,11.8L5.57,12.47V14.62L7.46,13.95V11.8M7.46,14.55L5.57,15.22V17.37L7.46,16.7V14.55Z" /></svg>
